X:339
T: SCHAEFER SAG WO WILLST DU WEIDEN
N: E1491A
O: Europa, Mitteleuropa, Deutschland, Bergstrasse
R: Staende - Lied, Hirten -,  Schaefer - Lied
M: 3/4
L: 1/16
K: C
C,2E,2 | G,6G,2G,2C2 | C2E,2E,4
E,2G,2 | G,6F,2F,2A,2 | A,2G,2G,4z4
E,2G,2G,2G,2 | E,2G,2G,2G,2
C3B,A,2G,2 | G,2F,2F,2F,2
A,4G,4F,4 | E,2F,2G,4z2
G,2 | G,2C2E4E4 | D2B,2C4

